svg/chevron-double-up.svg

<svg width="24" height="24" viewBox="0 0 24 24" fill="none" xmlns="http://www.w3.org/2000/svg">
<path d="M11.2929 4.29289C11.6834 3.90237 12.3166 3.90237 12.7071 4.29289L18.7071 10.2929C19.0976 10.6834 19.0976 11.3166 18.7071 11.7071C18.3166 12.0976 17.6834 12.0976 17.2929 11.7071L12 6.41421L6.70711 11.7071C6.31658 12.0976 5.68342 12.0976 5.29289 11.7071C4.90237 11.3166 4.90237 10.6834 5.29289 10.2929L11.2929 4.29289ZM12 12.4142L6.70711 17.7071C6.31658 18.0976 5.68342 18.0976 5.29289 17.7071C4.90237 17.3166 4.90237 16.6834 5.29289 16.2929L11.2929 10.2929C11.6834 9.90237 12.3166 9.90237 12.7071 10.2929L18.7071 16.2929C19.0976 16.6834 19.0976 17.3166 18.7071 17.7071C18.3166 18.0976 17.6834 18.0976 17.2929 17.7071L12 12.4142Z" fill="#0D0D0D"/>
</svg>

<svg width="24" height="24" fill="none" xmlns="http://www.w3.org/2000/svg"><path d="M11.293 4.293a1 1 0 011.414 0l6 6a1 1 0 01-1.414 1.414L12 6.414l-5.293 5.293a1 1 0 01-1.414-1.414l6-6zM12 12.414l-5.293 5.293a1 1 0 01-1.414-1.414l6-6a1 1 0 011.414 0l6 6a1 1 0 01-1.414 1.414L12 12.414z" fill="#0D0D0D"/></svg>
